svgs/duotone/file-dashed-line.svg

<svg xmlns="http://www.w3.org/2000/svg" viewBox="0 0 576 512"><!-- Font Awesome Pro 6.0.0-alpha2 by @fontawesome - https://fontawesome.com License - https://fontawesome.com/license (Commercial License) --><defs><style>.fa-secondary{opacity:.4}</style></defs><path d="M465.875 98.001L382 14.125C373 5.125 360.875 0 348.125 0H144C117.5 0.125 96 21.625 96 48.125V216H160V64H336V128C336 136.875 343.125 144 352 144H416V216H480V132C480 119.25 474.875 107 465.875 98.001ZM416 448H160V360H96V464C96 490.5 117.5 512 144 512H432C458.5 512 480 490.5 480 464V360H416V448Z" class="fa-secondary"/><path d="M332.375 264H243.625C238.375 264 233.375 266.001 229.75 269.75C226 273.375 224 278.375 224 283.625V292.375C224 297.625 226 302.625 229.75 306.25C233.375 310.001 238.375 312 243.625 312H332.375C337.625 312 342.625 310.001 346.25 306.25C350 302.625 352 297.625 352 292.375V283.625C352 278.375 350 273.375 346.25 269.75C342.625 266.001 337.625 264 332.375 264ZM144 264H16C7.125 264 0 271.125 0 280V296C0 304.875 7.125 312 16 312H144C152.875 312 160 304.875 160 296V280C160 271.125 152.875 264 144 264ZM560 264H432C423.125 264 416 271.125 416 280V296C416 304.875 423.125 312 432 312H560C568.875 312 576 304.875 576 296V280C576 271.125 568.875 264 560 264Z" class="fa-primary"/></svg>

<svg xmlns="http://www.w3.org/2000/svg" viewBox="0 0 576 512"><!--! Font Awesome Pro 6.0.0-alpha3 by @fontawesome - https://fontawesome.com License - https://fontawesome.com/license (Commercial License) --><defs><style>.fa-secondary{opacity:.4}</style></defs><path class="fa-primary" d="M332.4 264H243.6c-5.25 0-10.25 2.001-13.88 5.75C225.1 273.4 224 278.4 224 283.6v8.75c0 5.25 1.1 10.25 5.75 13.88C233.4 310 238.4 312 243.6 312h88.75c5.25 0 10.25-1.999 13.88-5.75C349.1 302.6 352 297.6 352 292.4V283.6c0-5.25-2-10.25-5.75-13.88C342.6 266 337.6 264 332.4 264zM144 264h-128C7.125 264 0 271.1 0 280v16c0 8.875 7.125 16 16 16h128c8.875 0 16-7.125 16-16v-16C160 271.1 152.9 264 144 264zM560 264h-128c-8.875 0-16 7.125-16 16v16c0 8.875 7.125 16 16 16h128c8.875 0 16-7.125 16-16v-16C576 271.1 568.9 264 560 264z"/><path class="fa-secondary" d="M465.9 98l-83.88-83.88C373 5.125 360.9 0 348.1 0H144C117.5 .125 96 21.62 96 48.13V216h64V64h176v64c0 8.875 7.125 16 16 16h64v72h64V132C480 119.3 474.9 107 465.9 98zM416 448H160v-88H96v104C96 490.5 117.5 512 144 512h288c26.5 0 48-21.5 48-48v-104h-64V448z"/></svg>
